packages/elements/bolt-icon/src/svgs/rocket.svg

<svg enable-background="new 0 0 32 32" viewBox="0 0 32 32" xmlns="http://www.w3.org/2000/svg"><g fill="#151619"><path d="m31.4 1.2c-.1-.3-.3-.5-.6-.6-.1 0-9.6-2.8-16 3.6-1.7 1.7-3.3 3.6-4.7 5.6l-.2-.1s-4.2-.7-6.7 1.8c-1.6 1.8-2.7 4-3.2 6.4-.1.4.1.8.4 1 .4.2.8.1 1.1-.2 1.3-1.3 2.9-2 4.7-2.2-.1.1-.1.3-.2.4-.1.3 0 .7.2 1l7.7 7.7c.3.3.6.3 1 .2l.4-.2c-.2 1.8-1 3.4-2.2 4.7-.4.4-.4.9 0 1.3.2.2.4.3.6.3h.3c2.4-.6 4.6-1.7 6.4-3.2 2.4-2.4 1.8-6.5 1.8-6.6s0-.1-.1-.2c2-1.4 3.8-3 5.6-4.7 6.5-6.4 3.7-15.9 3.7-16zm-4.9 14.7c-3.5 3.5-10.1 7.3-11.6 8.1l-6.9-6.9c.7-1.3 4.4-8 8-11.6 5-4.9 11.9-3.7 13.7-3.3.5 1.9 1.7 8.8-3.2 13.7zm-17.5-4.4c-.7 1.1-1.3 2.2-1.8 3.2-1.5 0-3 .4-4.4 1 .4-1.1 1.1-2.1 1.8-3 1.1-.9 2.6-1.4 4-1.3zm10.2 15.9c-.9.8-1.9 1.4-3 1.9.7-1.4 1-2.9 1-4.5 1-.5 2.2-1.2 3.2-1.9.3 1.7-.2 3.3-1.2 4.5z"/><path d="m22.9 5.3c-2.1 0-3.9 1.7-3.9 3.8s1.7 3.9 3.8 3.9c1 0 2-.4 2.8-1.2 1.5-1.5 1.5-4-.1-5.4-.7-.7-1.6-1.1-2.6-1.1zm1.4 5.3c-.8.8-2.1.9-2.9.1s-.9-2.1-.1-2.9 2.1-.9 2.9-.1c0 0 0 0 .1.1.8.7.8 2 0 2.8z"/><path d="m4.7 22.6c-1.1 1.1-1.6 4.7-1.7 5.4 0 .3.1.6.3.8.2.1.4.2.6.2h.1c.7-.1 4.2-.6 5.3-1.7 1.3-1.3 1.3-3.4 0-4.7-1.2-1.3-3.3-1.3-4.6 0zm3.4 3.4c-1 .5-2 .9-3.1 1 .1-1.1.5-2.1 1-3.1.3-.3.6-.4 1-.4s.8.2 1 .4c.7.5.7 1.5.1 2.1z"/></g></svg>

<?xml version="1.0" encoding="utf-8"?>
<!-- Generator: Adobe Illustrator 25.2.0, SVG Export Plug-In . SVG Version: 6.00 Build 0)  -->
<svg version="1.1" id="Layer_1" xmlns="http://www.w3.org/2000/svg" xmlns:xlink="http://www.w3.org/1999/xlink" x="0px" y="0px"
	 viewBox="0 0 32 32" style="enable-background:new 0 0 32 32;" xml:space="preserve">
<style type="text/css">
	.st0{fill:#151619;}
</style>
<g>
	<path class="st0" d="M31.4,1.2c-0.1-0.3-0.3-0.5-0.6-0.6c-0.1,0-9.6-2.8-16,3.6c-1.7,1.7-3.3,3.6-4.7,5.6L9.9,9.7
		c0,0-4.2-0.7-6.7,1.8c-1.6,1.8-2.7,4-3.2,6.4c-0.1,0.4,0.1,0.8,0.4,1c0.4,0.2,0.8,0.1,1.1-0.2c1.3-1.3,2.9-2,4.7-2.2
		c-0.1,0.1-0.1,0.3-0.2,0.4c-0.1,0.3,0,0.7,0.2,1l7.7,7.7c0.3,0.3,0.6,0.3,1,0.2l0.4-0.2c-0.2,1.8-1,3.4-2.2,4.7
		c-0.4,0.4-0.4,0.9,0,1.3c0.2,0.2,0.4,0.3,0.6,0.3H14c2.4-0.6,4.6-1.7,6.4-3.2c2.4-2.4,1.8-6.5,1.8-6.6c0-0.1,0-0.1-0.1-0.2
		c2-1.4,3.8-3,5.6-4.7C34.2,10.8,31.4,1.3,31.4,1.2z M26.5,15.9c-3.5,3.5-10.1,7.3-11.6,8.1L8,17.1c0.7-1.3,4.4-8,8-11.6
		C21,0.6,27.9,1.8,29.7,2.2C30.2,4.1,31.4,11,26.5,15.9z M9,11.5c-0.7,1.1-1.3,2.2-1.8,3.2c-1.5,0-3,0.4-4.4,1
		c0.4-1.1,1.1-2.1,1.8-3c1.1-0.9,2.6-1.4,4-1.3L9,11.5z M19.2,27.4c-0.9,0.8-1.9,1.4-3,1.9c0.7-1.4,1-2.9,1-4.5
		c1-0.5,2.2-1.2,3.2-1.9C20.7,24.6,20.2,26.2,19.2,27.4z"/>
	<path class="st0" d="M22.9,5.3C20.8,5.3,19,7,19,9.1c0,2.1,1.7,3.9,3.8,3.9c1,0,2-0.4,2.8-1.2c1.5-1.5,1.5-4-0.1-5.4
		C24.8,5.7,23.9,5.3,22.9,5.3z M24.3,10.6c-0.8,0.8-2.1,0.9-2.9,0.1c-0.8-0.8-0.9-2.1-0.1-2.9c0.8-0.8,2.1-0.9,2.9-0.1
		c0,0,0,0,0.1,0.1C25.1,8.5,25.1,9.8,24.3,10.6C24.3,10.6,24.3,10.6,24.3,10.6z"/>
	<path class="st0" d="M4.7,22.6c-1.1,1.1-1.6,4.7-1.7,5.4c0,0.3,0.1,0.6,0.3,0.8C3.5,28.9,3.7,29,3.9,29h0.1
		c0.7-0.1,4.2-0.6,5.3-1.7c1.3-1.3,1.3-3.4,0-4.7C8.1,21.3,6,21.3,4.7,22.6L4.7,22.6L4.7,22.6z M8.1,26c-1,0.5-2,0.9-3.1,1
		c0.1-1.1,0.5-2.1,1-3.1c0.3-0.3,0.6-0.4,1-0.4c0.4,0,0.8,0.2,1,0.4C8.7,24.4,8.7,25.4,8.1,26C8.1,26,8.1,26,8.1,26z"/>
</g>
</svg>
